X:1
T:Title
%%score { ( 1 4 ) | ( 2 3 ) }
L:1/8
M:4/4
K:Eb
V:1 treble nm="Grand Piano"
V:4 treble 
V:2 bass 
V:3 bass 
V:1
 z4 z2[Q:1/4=100] [GB]>A | G2 B2 F2 [DA]2 | G3 F E2 G2 | A2 c2 B2 G2 | [DF]6 [DB]>A | %5
 G2 B2 F2 [DA]2 | [EG]3 [DF] E2 G2 | F2 B2 d3 c | [DB]6 [DB]2 | [DB]2 [DF]G A2 c2 | [GB]4 G2 B2 | %11
 B2 [DF][EG] [DA]2 [Ad]2 | [B,GB]6 [B,GB]2 | [Ge]2 [Ge]2 d2 c2 | B2 A2 G2 [Ec]2 | %15
 [EB]2 [B,EG]2 [A,DF]3 [G,B,E] |[M:3/4] [G,B,E]6 |[M:1/4] [B,GB]2 |[M:4/4] B2 B2 B3 B | %19
 c2 [Ad]2 [Ge]3 [Ge] | d2 c2 B2 =A2 | B6 z2 | G2 [FA]2 [GB]3 G |[M:9/8] A2 B- B c2- c c2 | %24
[M:4/4] B2 e2 [DG]3 [DF] |[M:3/4] [B,E]6 |] %26
V:2
 z4 z2 z z/ F/ | [E,B,E]2 [E,G,E]2 [D,B,]2 [B,,B,]2 | E3 [F,D] [G,B,]2 [_DE]2 | %3
 [A,CE]2 [A,E]2 [G,B,E]2 [E,B,E]2 | [B,,B,]6 z z/ F/ | [E,B,E]2 [E,G,E]2 [D,B,]2 [B,,B,]2 | %6
 [E,B,]3 [F,B,] [G,B,]2 [E,B,E]2 | [F,B,D]2 [F,B,D]2 [F,=A,F]3 [F,A,E] | [B,,B,]6 [B,,B,]2 | %9
 [B,,B,]2 z[K:treble] E [B,D]2 [B,DA]2 | [E,E]4 [E,B,E]2 [G,B,E]2 | %11
 [F,B,D]2 [B,,B,]2 [B,,B,]2 z z/[K:treble] c/ | E,6 E,2 | %13
 [E,B,]2 [C,C]2[K:treble] [G,=B,F]2 [A,E]2 | [G,E]2 z2 z4 | [B,,G,]2 B,,2 B,,3 E, |[M:3/4] E,6 | %17
[M:1/4] E,G, |[M:4/4][K:treble] [B,DF]2 [A,DF]2 [G,E]3 [G,EG] | %19
 [A,EA]2[K:bass] [F,B,]2 [E,B,]3 [E,B,] | [F,B,F]2 [F,EF]2[K:treble] [F,DF]2 [F,CF]2 | %21
 [DF]4[K:bass] G,2 [F,B,D]2 | [E,B,E]2 [E,B,]2 [E,E]3 [E,B,E] | %23
[M:9/8] [F,B,D]2[K:treble] [G,E]- [G,E] [A,E]2- [A,E] [=A,E_G]2 | %24
[M:4/4] [B,EG]2 [B,G]2[K:bass] [B,,B,]3 [B,,A,] |[M:3/4] [E,G,]6 |] %26
V:3
 z4 z2 [E,B,]2 | x8 | [E,-B,]4 E,4 | x8 | z4 z2 [B,,B,]2 | x8 | x8 | x8 | x8 | %9
 z2 [B,,B,]2[K:treble] z4 | x8 | z4 z2 [B,,B,]2[K:treble] | x8 | x4[K:treble] x4 | %14
 B,2- [F,B,D]2 [E,B,E]2 [A,,A,]2 | x8 |[M:3/4] x6 |[M:1/4] x2 |[M:4/4][K:treble] x8 | %19
 x2[K:bass] x6 | x4[K:treble] x4 | B,2 z2[K:bass] z4 | x8 |[M:9/8] x2[K:treble] x7 | %24
[M:4/4] x4[K:bass] x4 |[M:3/4] x6 |] %26
V:4
 x8 | x8 | x8 | x8 | x8 | x8 | x8 | x8 | x8 | x8 | x8 | x8 | x8 | x8 | x8 | x8 |[M:3/4] x6 | %17
[M:1/4] x2 |[M:4/4] x8 | x8 | x8 | z2 A,2 E2 A2 | x8 |[M:9/8] x9 |[M:4/4] x8 |[M:3/4] x6 |] %26

